Newaita-dark/devices/symbolic/network-wireless-symbolic.svg

<svg height="16" viewBox="0 0 16 16" width="16" xmlns="http://www.w3.org/2000/svg"><g fill="#eee"><path d="m7.796875 1.421875c-2.53125-.003906-5 .792969-7.054687 2.273437l.007812.019532 1.277344 2.042968c1.707031-1.136718 3.71875-1.742187 5.769531-1.738281 2.136719 0 4.121094.640625 5.769531 1.738281l1.273438-2.042968c.007812-.007813.007812-.011719.011718-.015625-2.050781-1.484375-4.523437-2.28125-7.054687-2.277344zm0 0"/><path d="m7.796875 4.671875c-1.929687-.003906-3.820313.566406-5.425781 1.636719l1.382812 2.207031c1.1875-.816406 2.601563-1.25 4.042969-1.246094 1.441406-.003906 2.851563.429688 4.042969 1.246094l1.378906-2.207031c-1.601562-1.074219-3.492188-1.644532-5.421875-1.636719zm0 0"/><path d="m7.796875 7.917969c-1.320313-.003907-2.613281.398437-3.699219 1.152343l1.378906 2.207032c.671876-.496094 1.484376-.757813 2.320313-.757813.832031-.003906 1.644531.261719 2.316406.757813l1.382813-2.210938c-1.085938-.75-2.378906-1.152344-3.699219-1.148437zm0 0"/><path d="m7.796875 11.167969c-.742187 0-1.425781.246093-1.972656.660156l1.425781 2.28125c.117188.191406.324219.304687.546875.304687s.429687-.113281.550781-.304687l1.421875-2.28125c-.566406-.425781-1.261719-.660156-1.972656-.660156zm0 0"/></g></svg>

<svg xmlns="http://www.w3.org/2000/svg" xmlns:xlink="http://www.w3.org/1999/xlink" width="16px" height="16px" viewBox="0 0 16 16" version="1.1">
<g id="surface1">
<path style=" stroke:none;fill-rule:nonzero;fill:rgb(93.333334%,93.333334%,93.333334%);fill-opacity:1;" d="M 7.796875 1.421875 C 5.265625 1.417969 2.796875 2.214844 0.742188 3.695312 L 0.75 3.714844 L 2.027344 5.757812 C 3.734375 4.621094 5.746094 4.015625 7.796875 4.019531 C 9.933594 4.019531 11.917969 4.660156 13.566406 5.757812 L 14.839844 3.714844 C 14.847656 3.707031 14.847656 3.703125 14.851562 3.699219 C 12.800781 2.214844 10.328125 1.417969 7.796875 1.421875 Z M 7.796875 1.421875 "/>
<path style=" stroke:none;fill-rule:nonzero;fill:rgb(93.333334%,93.333334%,93.333334%);fill-opacity:1;" d="M 7.796875 4.671875 C 5.867188 4.667969 3.976562 5.238281 2.371094 6.308594 L 3.753906 8.515625 C 4.941406 7.699219 6.355469 7.265625 7.796875 7.269531 C 9.238281 7.265625 10.648438 7.699219 11.839844 8.515625 L 13.21875 6.308594 C 11.617188 5.234375 9.726562 4.664062 7.796875 4.671875 Z M 7.796875 4.671875 "/>
<path style=" stroke:none;fill-rule:nonzero;fill:rgb(93.333334%,93.333334%,93.333334%);fill-opacity:1;" d="M 7.796875 7.917969 C 6.476562 7.914062 5.183594 8.316406 4.097656 9.070312 L 5.476562 11.277344 C 6.148438 10.78125 6.960938 10.519531 7.796875 10.519531 C 8.628906 10.515625 9.441406 10.78125 10.113281 11.277344 L 11.496094 9.066406 C 10.410156 8.316406 9.117188 7.914062 7.796875 7.917969 Z M 7.796875 7.917969 "/>
<path style=" stroke:none;fill-rule:nonzero;fill:rgb(93.333334%,93.333334%,93.333334%);fill-opacity:1;" d="M 7.796875 11.167969 C 7.054688 11.167969 6.371094 11.414062 5.824219 11.828125 L 7.25 14.109375 C 7.367188 14.300781 7.574219 14.414062 7.796875 14.414062 C 8.019531 14.414062 8.226562 14.300781 8.347656 14.109375 L 9.769531 11.828125 C 9.203125 11.402344 8.507812 11.167969 7.796875 11.167969 Z M 7.796875 11.167969 "/>
</g>
</svg>
